X:1
T:Stanco non gia Signore
T:Tiburtio Massaino
T:Stanco non gia Signore
C:Tiburtio Massaino
%%score [ 1 2 3 4 ]
L:1/8
Q:1/4=172
M:4/2
K:F
V:1 alto2 nm="Soprano" snm="S"
V:2 alto nm="Alto" snm="A"
V:3 tenor nm="Tenor" snm="T"
V:4 bass nm="Bass" snm="B"
V:1
 z16 |[K:Ab][K:treble] z16 | A16 | G4 F4 D2 E2 F2 G2 | A6 B2 c8 | B4 c6 c2 F4 | c4 B4 B8 | %7
w: ||Stan-|co non gia _ _ _|_ Si- gno-|re, Di can- tar|le tue lo-|
 A4 A4 G6 F2 | G2 A2 B8 F4 | z4 G4 F4 B4- | B4 c8 A4 | B6 B2 c4 d4- | d4 c6 BA B4 | c16 | %14
w: di, Ma vin- *|* * * to,|Ma vin- to e-|* bro et con-|fu- so nel tu a-|* mo- * * *|re,|
 z4 c6 c2 c4 | B4 A4 d8 | c4 F4 A4 B4 | B4 F4 A4 A4 | G4 A4 B8 | A4 G8 F4 | G4 A4 F8 | %21
w: Que- sti se|pur tu gli o-|di, Con- cen- ti hu-|mil no- tai per|dar con- for-|to a l'al- ma an-|sia et in gor-|
 G4 A6 G2 F4- | F4 =E4 F8- | F8 z8 | z4 c4 d8 | c4 B8 B4 | A4 F4 A8 | G4 A8 G4 | F4 E4 A4 E4 | %29
w: da, In con- tem- plar-|* * ti|_|ac- cor-|to Ar- cier, ac-|cor- to Ar- cier|si ral- len-|tar veg- giam sua|
 _G8 F8 | z4 G4 A4 E4 | F4 G4 A8 | G8 z8 | F6 F2 F4 E4 | F4 F6 E2 D4 | C16 | z4 G4 B4 B4 | %37
w: cor da,|Che non si|sner- vi o sfor-|zi,|Et po- san- do|rin- for- * *|zi,|S'io va- neg-|
 F8 z4 F4 | A6 B2 c4 B4- | B2 B2 E4 A2 B2 c2 A2 | B2 c2 d8 c4 | e8 A8 | z4 e4 d4 B4 | c6 BA G4 A4 | %44
w: giai, S'io|va- neg- giai tut-|* to a se- guir- * * *|* * * ti hor|m'er- gi,|Et di tua|san- * * * ta|
 B2 c2 d4 B4 d4- | d2 c2 B6 =A2 A4 | B4 c4 d4 c2 c2- | c2 BA B2 AB c8 | c16- | c16- | c16 | %51
w: gra- * * tia il cor|_ m'as- per- * *|gi, il cor m'as- per-||gi,|_||
 z4 G4 B4 B4 | F8 z4 F4 | A6 B2 c4 B4- | B2 B2 E4 A2 B2 c2 A2 | B2 c2 d8 c4 | e8 A8 | z4 e4 d4 B4 | %58
w: S'io va- neg-|giai, S'io|va- neg- giai tut-|* to a se- guir- * * *|* * * ti hor|m'er- gi,|Et di tua|
 c6 BA G4 A4 | B2 c2 d4 B4 d4- | d2 c2 B6 =A2 A4 | B4 c4 d4 c2 c2- | c2 B2 B2 AB c8 | c16- | c16- | %65
w: san- * * * ta|gra- * * tia il cor|_ m'as- per- * *|gi, il cor m'as- per-||gi.|_|
 c16 |] %66
w: |
V:2
 z16 |[K:Ab][K:treble] D16 | C4 C4 E4 E4 | B,2 C2 D2 E2 F8- | F8 E8 | F6 F2 F4 A4 | E4 _G8 F4- | %7
w: |Stan-|co non gia Si-|gno- * * * *|* re,|Di can- tar le|tue lo- di,|
 F4 C4 E8 | B,4 E6 =DC D4 | E8 z4 G4- | G4 A4 F8 | D4 E2 D2 F8 | F8 z4 F4- | F2 F2 F4 A8 | %14
w: _ Ma vin-|to e- * * *|bro et|_ con- fu-|so nel tu a- mo-|re, Que-|* sti se pur|
 E4 A8 G4 | G4 F8 B4 | G4 A4 F8 | F4 D4 E4 F4 | B,4 F6 ED E4 | F4 B,4 B,4 B,4- | B,2 B,2 C4 D6 F2 | %21
w: tu gli o- di,|Con- cen- ti hu-|mil no- tai|per dar con- for-|to a l'al- * * *|ma, A l'al- ma an-|* sia et in gor- da, In|
 =E4 F8 A4- | A4 G4 z4 A4 | A6 G2 F2 E2 D4- | D4 C4 B,2 C2 D2 E2 | F6 E2 D8- | D4 C4 z4 C4 | %27
w: con- tem- plar-|* ti, In|con- * * * *|* tem- plar- * * *||* ti ac-|
 B,4 E4 E4 E4 | D4 B,4 E4 C4 | B,2 B,2 E6 DC D4 | E4 z2 B,2 C6 E2 | D2 C2 E6 =DC D4 | %32
w: cor- to Ar- cier si|ral- len- tar veg-|giam sua cor _ _ _|da, Che non si|sner- vi o sfor- * * *|
 E4 B,6 C2 D4- | D4 C4 B,4 C4- | C2 B,A, D8 B,4 | z4 C4 E4 E4 | B,8 z4 B,4 | D4 D4 A,8 | %38
w: zi, Et po- san-|* do rin- for-|* * * * zi,|S'io va- neg-|giai, S'io|va- neg- giai|
 C6 C2 C4 D4- | D4 C4 F4 E4 | z4 F4 A4 F4 | E6 C2 F4 E2 F2- | F2 G2 A6 GF G4 | A4 E4 E4 F4 | %44
w: tut- to a se- guir-|* ti hor m'er- gi,|Et di tua|san- ta gra- tia il cor|_ m'as- per- * * *|gi, Et di tua|
 E4 F4 _G4 F4 | z4 E4 F4 F4 | F16 | F16 | G8 A4 G4 | F6 G2 A8 | G4 C4 E4 E4 | B,8 z4 B,4 | %52
w: san- ta gra- tia|il cor m'as-|per-|gi,|il cor m'as-|per- * *|gi, S'io va- neg-|giai, S'io|
 D4 D4 A,8 | C6 C2 C4 D4- | D4 C4 F4 E4 | z4 F4 A4 F4 | E6 C2 F4 E2 F2- | F2 G2 A6 GF G4 | %58
w: va- neg- giai|tut- to a se- guir-|* ti hor m'er- gi,|Et di tua|san- ta gra- tia il cor|_ m'as- per- * * *|
 A4 E4 E4 F4 | E4 F4 _G4 F4 | z4 E4 F4 F4 | F16 | F16 | G8 A4 G4 | F6 G2 A8 | G16 |] %66
w: gi, Et di tua|san- ta gra- tia|il cor m'as-|per-|gi,|il cor m'as-|per- * *|gi.|
V:3
 z16 |[K:Ab][K:treble-8] z16 | z16 | B16 | F4 F4 A4 G4 | B4 =A4 c6 c2 | c4 e8 d4 | c8 c8 | %8
w: |||Stan-|co non gia Si-|gno- re, Di can-|tar le tue|lo- di,|
 z4 G4 B8 | E8 z4 e4- | e4 e4 z4 d4- | d4 B4 A6 A2 | B4 c4 d8 | c8 z4 c4- | c2 c2 c4 e8- | %15
w: Ma vin-|to e-|* bro et|_ con- fu- so|nel tu a- mo-|re, Que-|* sti se pur|
 e4 c4 f8 | e4 c4 d8 | d4 B4 c4 d4 | e4 d8 c2 B2 | c2 d2 e8 =d4 | e4 e4 A8 | c6 c2 d4 c4- | %22
w: _ tu gli o-|di, Con- cen-|ti hu- mil no- tai|per dar _ _|_ _ _ con-|for- to a l'al-|ma an- sia et in gor-|
 c2 c2 c8 c4 | d4 c2 B2 =A4 B4- | B2 =A2 A4 B8 | z8 z4 f4 | f4 f4 c4 e4 | e4 e4 B4 B4 | %28
w: * da, In con- tem-|plar- * * * *|* * * ti,|ac-|cor- to Ar- cier, ac-|cor- to Ar- cier si|
 B4 G4 c4 A4 | B4 B4 B8 | E4 e4 e2 d2 c2 B2 | A4 c4 c4 A4 | B6 c2 d4 A4 | A8 F4 A4 | %34
w: ral- len- tar veg-|giam sua cor|da, Che non _ _ _|_ si sner- vi o|sfor- * * zi,|Et po- san-|
 A4 B2 A4 GF G4 | A16 | z4 e4 d6 c2 | B4 B4 f4 d4 | e4 c4 f8 | g4 a8 a4 | d6 e2 f2 g2 a4- | %41
w: do rin- for- * * *|zi,|S'io va- neg-|giai, S'io va- neg-|giai tut- to a|se- guir- ti hor|m'er- * * * *|
 a4 g4 z4 c4 | d4 A4 B4 B4 | F2 G2 A2 B2 c8 | B8 z4 A4 | B4 B4 d4 c4 | B4 =A4 B4 c4 | d8 c8 | %48
w: * gi, Et|di tua san- ta|gra- * * * *|tia, Et|di tua san- ta|gra- tia il cor m'as-|per- gi,|
 =e8 f4 g4 | a6 g2 f8 | e6 d2 c8 | z4 e4 d6 c2 | B4 B4 f4 d4 | e4 c4 f8 | g4 a8 a4 | %55
w: il cor m'as-|per- * *|gi, _ _|S'io va- neg-|giai, S'io va- neg-|giai tut- to a|se- guir- ti hor|
 d6 e2 f2 g2 a4- | a4 g4 z4 c4 | d4 A4 B4 B4 | F2 G2 A2 B2 c8 | B8 z4 A4 | B4 B4 d4 c4 | %61
w: m'er- * * * *|* gi, Et|di tua san- ta|gra- * * * *|tia, Et|di tua san- ta|
 B4 =A4 B4 c4 | d8 c8 | =e8 f4 g4 | a6 g2 f8 | =e16 |] %66
w: gra- tia il cor m'as-|per- gi,|il cor m'as-|per- * *|gi.|
V:4
 z16 |[K:Ab] z8 F,8- | F,8 C,4 C,4 | E,4 B,,4 D,8- | D,8 C,8 | z4 F,6 F,2 F,4 | A,4 E,4 B,8 | %7
w: |Stan-|* co non|gia Si- gno-|* re,|Di can- tar|le tue lo-|
 F,8 z4 C,4 | E,8 B,,8 | z4 B,8 E,4 | z4 A,8 F,4 | _G,8 F,4 D,4- | D,4 A,,4 B,,8 | F,8 z8 | %14
w: di, Ma|vin- to|e- bro|et con-|fu- so nel|_ tu a- mo-|re,|
 C,6 C,2 C,4 E,4- | E,4 F,4 B,,8 | C,4 F,4 D,4 B,,4 | B,4 B,4 A,4 F,4 | E,4 F,4 _G,8 | %19
w: Que- sti se pur|_ tu gli o-|di, Con- cen- ti hu-|mil no- tai per|dar con- for-|
 F,4 E,8 B,,4 | E,4 A,,4 D,8 | C,4 F,8 F,4 | C,8 F,8- | F,16- | F,8 z8 | z4 B,4 B,4 B,4 | %26
w: to a l'al- ma an-|sia et in gor-|da, In con- tem-|plar- ti,|_||ac- cor- to Ar-|
 F,4 A,4 A,4 A,4 | E,4 C,4 E,4 E,4 | B,,4 E,4 A,,4 A,,4 | E,8 B,,4 B,4 | B,4 E,4 A,6 G,2 | %31
w: cier, ac- cor- to Ar-|cier si ral- len-|tar veg- giam sua|cor da, Che|non si sner- *|
 F,4 C,4 F,8 | E,8 z4 F,4- | F,2 F,2 F,4 D,4 C,4 | D,6 C,2 B,,8 | A,,8 z4 C,4 | E,4 E,4 B,,8 | %37
w: * vi o sfor-|zi, Et|_ po- san- do rin-|for- * *|zi, S'io|va- neg- giai,|
 z4 B,,4 D,4 D,4 | A,,4 A,8 B,4- | B,4 C4 D4 C4 | B,8 F,8 | z4 C4 D4 A,4 | B,4 C4 D8 | C8 z4 F,4 | %44
w: S'io va- neg-|giai tut- to a|_ se- guir- ti hor|m'er- gi,|Et di tua|san- ta gra-|tia, Et|
 _G,4 D,4 E,4 F,4 | _G,8 F,8 | z4 F,4 B,4 =A,4 | B,8 F,8 | z4 C,4 F,4 =E,4 | F,16 | C,8 z4 C,4 | %51
w: di tua san- ta|gra- tia|il cor m'as-|per- gi,|il cor m'as-|per-|gi, S'io|
 E,4 E,4 B,,8 | z4 B,,4 D,4 D,4 | A,,4 A,8 B,4- | B,4 C4 D4 C4 | B,8 F,8 | z4 C4 D4 A,4 | %57
w: va- neg- giai,|S'io va- neg-|giai tut- to a|_ se- guir- ti hor|m'er- gi,|Et di tua|
 B,4 C4 D8 | C8 z4 F,4 | _G,4 D,4 E,4 F,4 | _G,8 F,8 | z4 F,4 B,4 =A,4 | B,8 F,8 | %63
w: san- ta gra-|tia, Et|di tua san- ta|gra- tia|il cor m'as-|per- gi,|
 z4 C,4 F,4 =E,4 | F,16 | C,16 |] %66
w: il cor m'as-|per-|gi.|

